!!!OTL: Jaegerleben.
!!!OTL-incipit: FRISCH AUF ZUM FROEHLICHEN JAGEN
!!!ARE: Europa, Mitteleuropa, Deutschland, Rhein
!!!SCT: Z1280
!!!TXL: @@DE
!!!YEM: Copyright 1995, estate of Helmut Schaffrath.
**kern	**text
*ICvox	*
*M9/8	*
*k[f#c#g#]	*
*A:	*
!LO:TX:a:t=Vom Rheine.	!
{8e	Friſch
=1	=1
4a	auf
8a	ʒum
8b/	fröh-
8a	-li-
8b/	-chen
8cc#/	Ja-
8a}	-gen,
{8b/	es
=2	=2
8cc#/L	iſt
8eeJ	.
8cc#/	ſchon
8bL	an
8aJ	.
8b/	der
4a;}	Ʒeit,
{8e	es
=3	=3
4a	fängt
8a	ſchon
8bL	an
8aJ	.
8b/	ʒu
8cc#/	ta-
8a}	-gen,
{8b/	die
=4	=4
8cc#/L	Sonn'
8eeJ	.
8cc#/	iſt
8bL	nicht
8aJ	.
8b/	mehr
4a;}	weit;
{8cc#	auf,
=5	=5
4ee	laßt
8cc#	die
8cc#L	Fau-
8bJ	.
8cc#	-len
8dd	lie-
8b;}	-gen
{16bL	in
16cc#J	.
=6	=6
4dd	ih-
8dd	-rer
8cc#L	trä-
8bJ	.
8a	-gen
8b;L	Ruh,
8ee;J}	.
{16ddL	das
16bJ	.
=7	=7
4a	Hünd-
8a	-lein
8bL	bellt
8aJ	.
8b/	uns
8cc#/	fröh-
8a}	-lich
{8b/	den
=8	=8
8cc#L	gu-
8eeJ	.
8cc#	-ten
8bL	Mor-
8aJ	.
8b/	-gen
4a;}	ʒu.
==	==
!!!AGN: Jaeger - Lied
!!!ONB: ESAC (Essen Associative Code) Database: ZUCCAL
!!!AMT: irregular
!!!AIN: vox
!!!EED: Helmut Schaffrath
!!!EEV: 1.0
!!!GTL: VII. Jagd-, Bunkt- und GewerksLieder.
!!!URL-scan: https://www.digitale-sammlungen.de/de/view/bsb11160573?page=514
!!!ENC: Anna Maria Matuszewska
!!!EEV: 2025/02/06
*-	*-
